source/img/sprite/odnoklassniki.svg

<svg width="30" height="30" viewBox="0 0 30 30" fill="none" xmlns="http://www.w3.org/2000/svg">
<path d="M0.5 0.5H29.5V29.5H0.5V0.5Z" stroke="#2D383F" stroke-opacity="0.3"/>
<path d="M14.5 9.42035C15.4159 9.42035 16.1607 10.1874 16.1607 11.1305C16.1607 12.0708 15.4159 12.8378 14.5 12.8378C13.5841 12.8378 12.8393 12.0708 12.8393 11.1305C12.8393 10.1874 13.5841 9.42035 14.5 9.42035ZM14.5 15.2582C16.7124 15.2582 18.5111 13.406 18.5111 11.1305C18.5111 8.85219 16.7124 7 14.5 7C12.2876 7 10.4917 8.85219 10.4917 11.1305C10.4917 13.406 12.2876 15.2582 14.5 15.2582ZM16.1221 18.6273C16.9386 18.4342 17.7248 18.1018 18.4504 17.6331C18.9993 17.278 19.1649 16.5308 18.82 15.9655C18.4724 15.3974 17.7497 15.2269 17.1979 15.5848C15.5566 16.6473 13.4434 16.6473 11.7993 15.5848C11.2503 15.2269 10.5248 15.3974 10.18 15.9655C9.83515 16.5308 10.0007 17.278 10.5496 17.6331C11.2752 18.1018 12.0614 18.4342 12.8779 18.6273L10.6351 20.934C10.1772 21.4056 10.1772 22.1726 10.6351 22.6442C10.8669 22.88 11.1648 22.9993 11.4655 22.9993C11.7662 22.9993 12.0669 22.88 12.2986 22.6442L14.5 20.3772L16.7042 22.6442C17.1621 23.1186 17.9042 23.1186 18.3649 22.6442C18.8228 22.1726 18.8228 21.4056 18.3649 20.934L16.1221 18.6273Z" fill="#2D383F"/>
</svg>

<svg viewBox="0 0 30 30" fill="none" xmlns="http://www.w3.org/2000/svg"><path d="M.5.5h29v29h-29v-29Z" stroke="#2D383F" stroke-opacity=".3"/><path d="M14.5 9.42c.92 0 1.66.77 1.66 1.71s-.74 1.7-1.66 1.7c-.92 0-1.66-.76-1.66-1.7s.74-1.71 1.66-1.71Zm0 5.84a4.08 4.08 0 0 0 4.01-4.13c0-2.28-1.8-4.13-4.01-4.13s-4 1.85-4 4.13 1.79 4.13 4 4.13Zm1.62 3.37a7.6 7.6 0 0 0 2.33-1c.55-.35.71-1.1.37-1.66a1.15 1.15 0 0 0-1.62-.39 4.97 4.97 0 0 1-5.4 0 1.15 1.15 0 0 0-1.62.39c-.34.56-.18 1.3.37 1.66.73.47 1.51.8 2.33 1l-2.24 2.3a1.24 1.24 0 0 0 0 1.71 1.16 1.16 0 0 0 1.66 0l2.2-2.26 2.2 2.26c.46.48 1.2.48 1.66 0 .46-.47.46-1.23 0-1.7l-2.24-2.31Z" fill="#2D383F"/></svg>
